svg/streamline_call-center-support-service.svg

<svg width="101" height="101" viewBox="0 0 101 101" fill="none" xmlns="http://www.w3.org/2000/svg">
<path d="M96.2164 23.4301H76.7841C76.5839 23.4301 76.3856 23.3906 76.2007 23.3137C76.0158 23.2369 75.8478 23.1242 75.7066 22.9823C75.5653 22.8404 75.4535 22.672 75.3775 22.4867C75.3015 22.3014 75.2628 22.1029 75.2638 21.9027C75.2685 21.5255 75.3934 21.1908 75.6386 20.8985L89.4986 5.05855C89.6329 4.90148 89.8 4.77577 89.9882 4.69024C90.1763 4.60472 90.3809 4.56148 90.5876 4.56355C91.3796 4.56355 92.0231 5.21412 92.0231 6.00612V29.7166M63.5818 29.7095H46.8225V26.1385C46.8242 24.9167 47.1815 23.7219 47.8508 22.6998C48.5201 21.6776 49.4724 20.8724 50.5916 20.3823L59.9258 16.3021C61.2175 15.7397 62.2757 14.7492 62.9222 13.4976C63.5686 12.2459 63.7638 10.8097 63.4747 9.4309C63.1857 8.05213 62.4301 6.81517 61.3354 5.92854C60.2407 5.04191 58.8737 4.55982 57.465 4.56355H53.109C51.8091 4.56498 50.5416 4.96887 49.4805 5.71972C48.4194 6.47057 47.6169 7.53155 47.1831 8.7569M54.0778 93.3878C57.7436 95.7482 62.1069 96.7829 66.4423 96.3197C70.7777 95.8566 74.824 93.9236 77.9085 90.842L80.5956 88.1549C81.7875 86.9502 82.456 85.3239 82.456 83.6292C82.456 81.9345 81.7875 80.3082 80.5956 79.1035L69.2813 67.8599C68.0886 66.6724 66.4741 66.0057 64.791 66.0057C63.1079 66.0057 61.4933 66.6724 60.3006 67.8599C59.0959 69.0518 57.4696 69.7203 55.7749 69.7203C54.0802 69.7203 52.4539 69.0518 51.2492 67.8599L33.2171 49.8278C32.0252 48.623 31.3567 46.9967 31.3567 45.302C31.3567 43.6074 32.0252 41.9811 33.2171 40.7763C34.4046 39.5836 35.0713 37.9691 35.0713 36.286C35.0713 34.6029 34.4046 32.9883 33.2171 31.7956L22.327 20.4813C21.1223 19.2895 19.496 18.621 17.8013 18.621C16.1066 18.621 14.4804 19.2895 13.2756 20.4813L10.5885 23.1685C7.45163 26.2094 5.45258 30.2342 4.92494 34.5712C4.3973 38.9081 5.373 43.2948 7.68919 46.9992C20.0157 65.309 35.768 81.0612 54.0778 93.3878Z" stroke="#319F5A" stroke-width="8.05929" stroke-linecap="round" stroke-linejoin="round"/>
</svg>

<?xml version="1.0" encoding="utf-8"?>
<!-- Generator: Adobe Illustrator 25.4.1, SVG Export Plug-In . SVG Version: 6.00 Build 0)  -->
<svg version="1.1" id="Capa_1" xmlns="http://www.w3.org/2000/svg" xmlns:xlink="http://www.w3.org/1999/xlink" x="0px" y="0px"
	 viewBox="0 0 101 101" style="enable-background:new 0 0 101 101;" xml:space="preserve">
<style type="text/css">
	.st0{fill:none;stroke:#FFFFFF;stroke-width:8.0593;stroke-linecap:round;stroke-linejoin:round;}
</style>
<path class="st0" d="M96.2,23.4H76.8c-0.2,0-0.4,0-0.6-0.1c-0.2-0.1-0.4-0.2-0.5-0.3c-0.1-0.1-0.3-0.3-0.3-0.5
	c-0.1-0.2-0.1-0.4-0.1-0.6c0-0.4,0.1-0.7,0.4-1L89.5,5.1c0.1-0.2,0.3-0.3,0.5-0.4c0.2-0.1,0.4-0.1,0.6-0.1C91.4,4.6,92,5.2,92,6
	v23.7 M63.6,29.7H46.8v-3.6c0-1.2,0.4-2.4,1-3.4c0.7-1,1.6-1.8,2.7-2.3l9.3-4.1c1.3-0.6,2.3-1.6,3-2.8c0.6-1.3,0.8-2.7,0.6-4.1
	c-0.3-1.4-1-2.6-2.1-3.5s-2.5-1.4-3.9-1.4h-4.4c-1.3,0-2.6,0.4-3.6,1.2s-1.9,1.8-2.3,3 M54.1,93.4c3.7,2.4,8,3.4,12.4,2.9
	c4.3-0.5,8.4-2.4,11.5-5.5l2.7-2.7c1.2-1.2,1.9-2.8,1.9-4.5c0-1.7-0.7-3.3-1.9-4.5L69.3,67.9c-1.2-1.2-2.8-1.9-4.5-1.9
	c-1.7,0-3.3,0.7-4.5,1.9c-1.2,1.2-2.8,1.9-4.5,1.9c-1.7,0-3.3-0.7-4.5-1.9l-18-18c-1.2-1.2-1.9-2.8-1.9-4.5c0-1.7,0.7-3.3,1.9-4.5
	c1.2-1.2,1.9-2.8,1.9-4.5c0-1.7-0.7-3.3-1.9-4.5L22.3,20.5c-1.2-1.2-2.8-1.9-4.5-1.9s-3.3,0.7-4.5,1.9l-2.7,2.7
	c-3.1,3-5.1,7.1-5.7,11.4C4.4,38.9,5.4,43.3,7.7,47C20,65.3,35.8,81.1,54.1,93.4z"/>
</svg>
